localPackages/DesignSystem/Sources/DesignSystem/Resources/Assets.xcassets/IconSet/ic-paint-roller.imageset/ic-paint-roller.svg

<svg width="24" height="24" viewBox="0 0 24 24" fill="none" xmlns="http://www.w3.org/2000/svg">
<g id="ic-paint-roller">
<path id="Icon" fill-rule="evenodd" clip-rule="evenodd" d="M3 4.5C3 3.67157 3.67157 3 4.5 3L17.25 3C18.0784 3 18.75 3.67157 18.75 4.5V7.5C18.75 8.32843 18.0784 9 17.25 9L4.5 9C3.67157 9 3 8.32842 3 7.5V4.5ZM4.5 1.5C2.84315 1.5 1.5 2.84315 1.5 4.5V7.5C1.5 9.15685 2.84315 10.5 4.5 10.5H17.25C18.9069 10.5 20.25 9.15685 20.25 7.5V6C20.6642 6 21 6.33579 21 6.75V10.5C21 10.9142 20.6642 11.25 20.25 11.25H13.5C12.2574 11.25 11.25 12.2574 11.25 13.5L11.25 14.25C10.4216 14.25 9.75 14.9216 9.75 15.75L9.75 21C9.75 21.8284 10.4216 22.5 11.25 22.5H12.75C13.5784 22.5 14.25 21.8284 14.25 21L14.25 15.75C14.25 14.9216 13.5784 14.25 12.75 14.25L12.75 13.5C12.75 13.0858 13.0858 12.75 13.5 12.75H20.25C21.4926 12.75 22.5 11.7426 22.5 10.5V6.75C22.5 5.50736 21.4926 4.5 20.25 4.5C20.25 2.84315 18.9069 1.5 17.25 1.5H4.5ZM12 15.75H11.25L11.25 21H12.75L12.75 15.75L12 15.75Z" fill="#0F0F0F"/>
</g>
</svg>

<svg xmlns="http://www.w3.org/2000/svg" width="24" height="24" viewBox="0 0 24 24">
  <g class="ic-paint-roller">
    <path fill-rule="evenodd" d="M3 4.5A1.5 1.5 0 0 1 4.5 3h12.75a1.5 1.5 0 0 1 1.5 1.5v3a1.5 1.5 0 0 1-1.5 1.5H4.5A1.5 1.5 0 0 1 3 7.5v-3Zm1.5-3a3 3 0 0 0-3 3v3a3 3 0 0 0 3 3h12.75a3 3 0 0 0 3-3V6a.75.75 0 0 1 .75.75v3.75a.75.75 0 0 1-.75.75H13.5a2.25 2.25 0 0 0-2.25 2.25v.75a1.5 1.5 0 0 0-1.5 1.5V21a1.5 1.5 0 0 0 1.5 1.5h1.5a1.5 1.5 0 0 0 1.5-1.5v-5.25a1.5 1.5 0 0 0-1.5-1.5v-.75a.75.75 0 0 1 .75-.75h6.75a2.25 2.25 0 0 0 2.25-2.25V6.75a2.25 2.25 0 0 0-2.25-2.25 3 3 0 0 0-3-3H4.5ZM12 15.75h-.75V21h1.5v-5.25H12Z" class="Icon"/>
  </g>
</svg>
